img/wicon_txmenu.svg

<?xml version="1.0" encoding="utf-8"?>
<!-- Roman Inozemtsev: https://github.com/mir-one/  -->
<svg version="1.1" id="Слой_1" xmlns="http://www.w3.org/2000/svg" xmlns:xlink="http://www.w3.org/1999/xlink" x="0px" y="0px"
	 viewBox="0 0 17.9 17.9" style="enable-background:new 0 0 17.9 17.9;" xml:space="preserve">
<style type="text/css">
	.st0{fill:#4598C5;}
</style>
<g id="Layer_x0020_1">
	<path id="Layer_x0020_1_0" class="st0" d="M9,0c2.4,0,4.7,1,6.3,2.6c1.6,1.7,2.6,3.9,2.6,6.4c0,2.4-1,4.7-2.6,6.3
		c-1.7,1.6-3.9,2.6-6.3,2.6c-2.5,0-4.8-1-6.4-2.6C1,13.7,0,11.5,0,9c0-2.5,1-4.8,2.6-6.4C4.3,1,6.5,0,9,0z M6.3,8.6h1L7.1,9.2H6.3
		V8.6z M10.6,8.6h1v0.6h-0.8L10.6,8.6z M6.3,7.6h1.5L7.6,8.1H6.3V7.6z M10.1,7.6h1.5v0.6h-1.2L10.1,7.6z M6.3,6.6h2L8.1,7.1H6.3V6.6
		z M9.7,6.6h1.9v0.6H9.9L9.7,6.6z M6.3,5.5h5.3v0.6H6.3V5.5z M13.2,3.8v7.6H12V5H6v6.3H4.8V3.8C7.6,3.8,10.4,3.8,13.2,3.8z
		 M7.9,16.4V13H6.1l3-6.2l2.9,6.2h-1.8v3.4c1.7-0.2,3.1-1,4.3-2.1C15.6,13,16.5,11,16.5,9c0-2.1-0.9-4-2.2-5.3C13,2.3,11,1.4,9,1.4
		c-2.1,0-4,0.9-5.3,2.2S1.4,6.9,1.4,9c0,2,0.9,4,2.2,5.3C4.8,15.4,6.3,16.2,7.9,16.4z"/>
</g>
</svg>

<?xml version="1.0" encoding="UTF-8" standalone="no"?>
<!-- Roman Inozemtsev: https://github.com/mir-one/  -->

<svg
   xmlns:dc="http://purl.org/dc/elements/1.1/"
   xmlns:cc="http://creativecommons.org/ns#"
   xmlns:rdf="http://www.w3.org/1999/02/22-rdf-syntax-ns#"
   xmlns:svg="http://www.w3.org/2000/svg"
   xmlns="http://www.w3.org/2000/svg"
   xmlns:sodipodi="http://sodipodi.sourceforge.net/DTD/sodipodi-0.dtd"
   xmlns:inkscape="http://www.inkscape.org/namespaces/inkscape"
   version="1.1"
   id="Слой_1"
   x="0px"
   y="0px"
   viewBox="0 0 17.9 17.9"
   style="enable-background:new 0 0 17.9 17.9;"
   xml:space="preserve"
   sodipodi:docname="wicon_txmenu.svg"
   inkscape:version="0.92.3 (2405546, 2018-03-11)"><metadata
   id="metadata11"><rdf:RDF><cc:Work
       rdf:about=""><dc:format>image/svg+xml</dc:format><dc:type
         rdf:resource="http://purl.org/dc/dcmitype/StillImage" /></cc:Work></rdf:RDF></metadata><defs
   id="defs9" /><sodipodi:namedview
   pagecolor="#ffffff"
   bordercolor="#666666"
   borderopacity="1"
   objecttolerance="10"
   gridtolerance="10"
   guidetolerance="10"
   inkscape:pageopacity="0"
   inkscape:pageshadow="2"
   inkscape:window-width="1366"
   inkscape:window-height="691"
   id="namedview7"
   showgrid="false"
   inkscape:zoom="13.184358"
   inkscape:cx="-6.826271"
   inkscape:cy="8.9499998"
   inkscape:window-x="0"
   inkscape:window-y="0"
   inkscape:window-maximized="1"
   inkscape:current-layer="Слой_1" />
<style
   type="text/css"
   id="style2">
	.st0{fill:#4598C5;}
</style>
<g
   id="Layer_x0020_1"
   style="fill:#4a472b;fill-opacity:1">
	<path
   id="Layer_x0020_1_0"
   class="st0"
   d="m 9,0 c 2.4,0 4.7,1 6.3,2.6 1.6,1.7 2.6,3.9 2.6,6.4 0,2.4 -1,4.7 -2.6,6.3 -1.7,1.6 -3.9,2.6 -6.3,2.6 -2.5,0 -4.8,-1 -6.4,-2.6 C 1,13.7 0,11.5 0,9 0,6.5 1,4.2 2.6,2.6 4.3,1 6.5,0 9,0 Z M 6.3,8.6 h 1 L 7.1,9.2 H 6.3 Z m 4.3,0 h 1 V 9.2 H 10.8 Z M 6.3,7.6 H 7.8 L 7.6,8.1 H 6.3 Z m 3.8,0 h 1.5 v 0.6 h -1.2 z m -3.8,-1 h 2 L 8.1,7.1 H 6.3 Z m 3.4,0 h 1.9 V 7.2 H 9.9 Z M 6.3,5.5 h 5.3 V 6.1 H 6.3 Z m 6.9,-1.7 v 7.6 H 12 V 5 H 6 v 6.3 H 4.8 V 3.8 c 2.8,0 5.6,0 8.4,0 z M 7.9,16.4 V 13 H 6.1 L 9.1,6.8 12,13 h -1.8 v 3.4 c 1.7,-0.2 3.1,-1 4.3,-2.1 C 15.6,13 16.5,11 16.5,9 16.5,6.9 15.6,5 14.3,3.7 13,2.3 11,1.4 9,1.4 6.9,1.4 5,2.3 3.7,3.6 2.4,4.9 1.4,6.9 1.4,9 c 0,2 0.9,4 2.2,5.3 1.2,1.1 2.7,1.9 4.3,2.1 z"
   inkscape:connector-curvature="0"
   style="fill:#4a472b;fill-opacity:1" />
</g>
</svg>
